X: 670
P: Longways for as many as will
M: C|
L: 1/8
K: F
(Ac) (dc) A2 (GF) | (fg)(af) g3 c | (Ac) (dc) A2 (GF) | a2 f2 A2 d2 |\
(Ac) (fc) (Bd) (fd) | (Ac) fA G3 B | (Ac) (df) (eg) (ca) | g2 f2 f3 :|
|: a |\
(ac') (c'a) (fa) (af) | (eg) (ge) c3 c | d>c d>e f>d e>f | g2 e2 e3 c |\
(dB/c/) dc ec/d/ ec | fd/e/ fA G3 B | (Ac) (df) (eg) (ca) | g2 f2 f3 :|

